build/img/number-5000.svg

<svg width="194" height="74" viewBox="0 0 194 74" fill="none" xmlns="http://www.w3.org/2000/svg">
<path opacity="0.48" d="M2.05469 38.0391L5.57031 1.90625H39.9941V13.7227H16.8984L15.6289 28.957C18.2982 27.1667 21.0488 26.2715 23.8809 26.2715C29.7402 26.2715 34.2487 28.3548 37.4062 32.5215C40.5964 36.6882 42.1914 42.5801 42.1914 50.1973C42.1914 57.3262 40.3034 63.0716 36.5273 67.4336C32.7513 71.7956 27.7057 73.9766 21.3906 73.9766C17.6471 73.9766 14.1803 73.0977 10.9902 71.3398C7.80013 69.5495 5.27734 67.0755 3.42188 63.918C1.59896 60.7604 0.671224 57.1797 0.638672 53.1758H14.3105C14.5384 56.138 15.2708 58.4329 16.5078 60.0605C17.7448 61.6882 19.3398 62.502 21.293 62.502C23.5716 62.502 25.3294 61.4115 26.5664 59.2305C27.8034 57.0169 28.4219 53.7292 28.4219 49.3672C28.4219 45.2656 27.6732 42.1732 26.1758 40.0898C24.7109 38.0065 22.6439 36.9648 19.9746 36.9648C17.3704 36.9648 15.3522 37.86 13.9199 39.6504L13.041 40.8711L2.05469 38.0391ZM92.5332 43.6055C92.5332 53.4362 90.7428 60.9557 87.1621 66.1641C83.6139 71.3724 78.5358 73.9766 71.9277 73.9766C65.3848 73.9766 60.3229 71.4538 56.7422 66.4082C53.194 61.3301 51.3548 54.071 51.2246 44.6309V31.2031C51.2246 21.4049 52.9987 13.918 56.5469 8.74219C60.0951 3.53385 65.1895 0.929688 71.8301 0.929688C78.4707 0.929688 83.5651 3.5013 87.1133 8.64453C90.6615 13.7878 92.4681 21.1283 92.5332 30.666V43.6055ZM78.666 29.2012C78.666 23.6022 78.1126 19.403 77.0059 16.6035C75.8991 13.804 74.1738 12.4043 71.8301 12.4043C67.4355 12.4043 65.1569 17.5312 64.9941 27.7852V45.5098C64.9941 51.2389 65.5475 55.5033 66.6543 58.3027C67.7936 61.1022 69.5514 62.502 71.9277 62.502C74.1738 62.502 75.834 61.1999 76.9082 58.5957C78.015 55.959 78.6009 51.9388 78.666 46.5352V29.2012ZM143.119 43.6055C143.119 53.4362 141.329 60.9557 137.748 66.1641C134.2 71.3724 129.122 73.9766 122.514 73.9766C115.971 73.9766 110.909 71.4538 107.328 66.4082C103.78 61.3301 101.941 54.071 101.811 44.6309V31.2031C101.811 21.4049 103.585 13.918 107.133 8.74219C110.681 3.53385 115.775 0.929688 122.416 0.929688C129.057 0.929688 134.151 3.5013 137.699 8.64453C141.247 13.7878 143.054 21.1283 143.119 30.666V43.6055ZM129.252 29.2012C129.252 23.6022 128.699 19.403 127.592 16.6035C126.485 13.804 124.76 12.4043 122.416 12.4043C118.021 12.4043 115.743 17.5312 115.58 27.7852V45.5098C115.58 51.2389 116.133 55.5033 117.24 58.3027C118.38 61.1022 120.137 62.502 122.514 62.502C124.76 62.502 126.42 61.1999 127.494 58.5957C128.601 55.959 129.187 51.9388 129.252 46.5352V29.2012ZM193.705 43.6055C193.705 53.4362 191.915 60.9557 188.334 66.1641C184.786 71.3724 179.708 73.9766 173.1 73.9766C166.557 73.9766 161.495 71.4538 157.914 66.4082C154.366 61.3301 152.527 54.071 152.396 44.6309V31.2031C152.396 21.4049 154.171 13.918 157.719 8.74219C161.267 3.53385 166.361 0.929688 173.002 0.929688C179.643 0.929688 184.737 3.5013 188.285 8.64453C191.833 13.7878 193.64 21.1283 193.705 30.666V43.6055ZM179.838 29.2012C179.838 23.6022 179.285 19.403 178.178 16.6035C177.071 13.804 175.346 12.4043 173.002 12.4043C168.607 12.4043 166.329 17.5312 166.166 27.7852V45.5098C166.166 51.2389 166.719 55.5033 167.826 58.3027C168.965 61.1022 170.723 62.502 173.1 62.502C175.346 62.502 177.006 61.1999 178.08 58.5957C179.187 55.959 179.773 51.9388 179.838 46.5352V29.2012Z" fill="#E8E8E8"/>
</svg>

<svg width="194" height="74" fill="none" xmlns="http://www.w3.org/2000/svg"><path opacity=".48" d="M2.055 38.04L5.57 1.905h34.424v11.817H16.898l-1.27 15.234c2.67-1.79 5.42-2.686 8.253-2.686 5.86 0 10.368 2.084 13.525 6.25 3.19 4.167 4.785 10.06 4.785 17.676 0 7.13-1.888 12.875-5.664 17.237-3.776 4.362-8.821 6.543-15.136 6.543-3.744 0-7.21-.88-10.4-2.637-3.19-1.79-5.714-4.264-7.57-7.422C1.6 60.76.672 57.18.64 53.176h13.67c.228 2.962.96 5.257 2.198 6.884 1.237 1.628 2.832 2.442 4.785 2.442 2.279 0 4.036-1.09 5.273-3.272 1.237-2.213 1.856-5.5 1.856-9.863 0-4.101-.749-7.194-2.246-9.277-1.465-2.084-3.532-3.125-6.201-3.125-2.605 0-4.623.895-6.055 2.685l-.879 1.221L2.055 38.04zm90.478 5.566c0 9.83-1.79 17.35-5.37 22.558-3.55 5.208-8.627 7.813-15.235 7.813-6.543 0-11.605-2.523-15.186-7.569-3.548-5.078-5.387-12.337-5.517-21.777V31.203c0-9.798 1.774-17.285 5.322-22.46C60.095 3.532 65.189.93 71.83.93c6.64 0 11.735 2.571 15.283 7.715 3.549 5.143 5.355 12.483 5.42 22.021v12.94zM78.666 29.2c0-5.599-.553-9.798-1.66-12.598-1.107-2.799-2.832-4.199-5.176-4.199-4.394 0-6.673 5.127-6.836 15.381V45.51c0 5.729.553 9.993 1.66 12.793 1.14 2.8 2.897 4.199 5.274 4.199 2.246 0 3.906-1.302 4.98-3.906 1.107-2.637 1.693-6.657 1.758-12.06V29.2zm64.453 14.404c0 9.831-1.79 17.35-5.371 22.56-3.548 5.207-8.626 7.812-15.234 7.812-6.543 0-11.605-2.523-15.186-7.569-3.548-5.078-5.387-12.337-5.517-21.777V31.203c0-9.798 1.774-17.285 5.322-22.46 3.548-5.21 8.642-7.813 15.283-7.813s11.735 2.571 15.283 7.715c3.548 5.143 5.355 12.483 5.42 22.021v12.94zM129.252 29.2c0-5.599-.553-9.798-1.66-12.598-1.107-2.799-2.832-4.199-5.176-4.199-4.395 0-6.673 5.127-6.836 15.381V45.51c0 5.729.553 9.993 1.66 12.793 1.14 2.8 2.897 4.199 5.274 4.199 2.246 0 3.906-1.302 4.98-3.906 1.107-2.637 1.693-6.657 1.758-12.06V29.2zm64.453 14.404c0 9.831-1.79 17.35-5.371 22.56-3.548 5.207-8.626 7.812-15.234 7.812-6.543 0-11.605-2.523-15.186-7.569-3.548-5.078-5.387-12.337-5.518-21.777V31.203c0-9.798 1.775-17.285 5.323-22.46 3.548-5.21 8.642-7.813 15.283-7.813s11.735 2.571 15.283 7.715c3.548 5.143 5.355 12.483 5.42 22.021v12.94zM179.838 29.2c0-5.599-.553-9.798-1.66-12.598-1.107-2.799-2.832-4.199-5.176-4.199-4.395 0-6.673 5.127-6.836 15.381V45.51c0 5.729.553 9.993 1.66 12.793 1.139 2.8 2.897 4.199 5.274 4.199 2.246 0 3.906-1.302 4.98-3.906 1.107-2.637 1.693-6.657 1.758-12.06V29.2z" fill="#E8E8E8"/></svg>
